packages/icons/src/camera-plus.svg

<svg width="24" height="24" viewBox="0 0 24 24" fill="none" xmlns="http://www.w3.org/2000/svg">
<path d="M11 18.5C12.25 18.5 13.3125 18.0625 14.1875 17.1875C15.0625 16.3125 15.5 15.25 15.5 14C15.5 12.75 15.0625 11.6875 14.1875 10.8125C13.3125 9.9375 12.25 9.5 11 9.5C9.75 9.5 8.6875 9.9375 7.8125 10.8125C6.9375 11.6875 6.5 12.75 6.5 14C6.5 15.25 6.9375 16.3125 7.8125 17.1875C8.6875 18.0625 9.75 18.5 11 18.5ZM3 22C2.45 22 1.97917 21.8042 1.5875 21.4125C1.19583 21.0208 1 20.55 1 20V8C1 7.45 1.19583 6.97917 1.5875 6.5875C1.97917 6.19583 2.45 6 3 6H6.15L7.4 4.65C7.58333 4.45 7.80417 4.29167 8.0625 4.175C8.32083 4.05833 8.59167 4 8.875 4H13C13.2833 4 13.5208 4.09583 13.7125 4.2875C13.9042 4.47917 14 4.71667 14 5V8H3V20H19V11H20C20.1333 11 20.2625 11.025 20.3875 11.075C20.5125 11.125 20.6208 11.1958 20.7125 11.2875C20.8042 11.3792 20.875 11.4875 20.925 11.6125C20.975 11.7375 21 11.8667 21 12V20C21 20.55 20.8042 21.0208 20.4125 21.4125C20.0208 21.8042 19.55 22 19 22H3ZM19 6H18C17.7167 6 17.4792 5.90417 17.2875 5.7125C17.0958 5.52083 17 5.28333 17 5C17 4.71667 17.0958 4.47917 17.2875 4.2875C17.4792 4.09583 17.7167 4 18 4H19V3C19 2.71667 19.0958 2.47917 19.2875 2.2875C19.4792 2.09583 19.7167 2 20 2C20.2833 2 20.5208 2.09583 20.7125 2.2875C20.9042 2.47917 21 2.71667 21 3V4H22C22.2833 4 22.5208 4.09583 22.7125 4.2875C22.9042 4.47917 23 4.71667 23 5C23 5.28333 22.9042 5.52083 22.7125 5.7125C22.5208 5.90417 22.2833 6 22 6H21V7C21 7.28333 20.9042 7.52083 20.7125 7.7125C20.5208 7.90417 20.2833 8 20 8C19.7167 8 19.4792 7.90417 19.2875 7.7125C19.0958 7.52083 19 7.28333 19 7V6Z" fill="black"/>
</svg>

<svg xmlns="http://www.w3.org/2000/svg" width="24" height="24" fill="none" viewBox="0 0 24 24">
  <path fill="#000" d="M11 18.5c1.25 0 2.313-.438 3.188-1.313.874-.875 1.312-1.937 1.312-3.187 0-1.25-.438-2.313-1.313-3.188C13.313 9.938 12.25 9.5 11 9.5c-1.25 0-2.313.438-3.188 1.313C6.938 11.687 6.5 12.75 6.5 14c0 1.25.438 2.313 1.313 3.188S9.75 18.5 11 18.5ZM3 22c-.55 0-1.02-.196-1.413-.587A1.926 1.926 0 0 1 1 20V8c0-.55.196-1.02.587-1.412A1.926 1.926 0 0 1 3 6h3.15L7.4 4.65A2.011 2.011 0 0 1 8.875 4H13c.283 0 .52.096.713.287.191.192.287.43.287.713v3H3v12h16v-9h1c.133 0 .262.025.387.075a.956.956 0 0 1 .538.538c.05.125.075.254.075.387v8c0 .55-.196 1.02-.587 1.413A1.926 1.926 0 0 1 19 22H3ZM19 6h-1a.968.968 0 0 1-.712-.287A.967.967 0 0 1 17 5a.97.97 0 0 1 .288-.713A.968.968 0 0 1 18 4h1V3c0-.283.096-.52.288-.712A.968.968 0 0 1 20 2c.283 0 .52.096.712.288A.965.965 0 0 1 21 3v1h1a.97.97 0 0 1 .712.287c.192.192.288.43.288.713s-.096.52-.288.713A.968.968 0 0 1 22 6h-1v1a.97.97 0 0 1-.288.713A.968.968 0 0 1 20 8a.968.968 0 0 1-.712-.287A.967.967 0 0 1 19 7V6Z"/>
</svg>
